symbolic/22x22/apps/zevdocs.svg

<svg xmlns="http://www.w3.org/2000/svg" width="22" height="22" version="1">
 <path style="opacity:0.2" d="M 14,6.7631575 V 2.5526313 H 7 V 6.7631575 L 1.0876877,19.921052 C 0.77098172,20.710524 1.3516093,21.5 2.1961542,21.5 H 18.82317 c 0.844549,0 1.372388,-0.842103 1.108466,-1.578947 z"/>
 <path style="fill:#9ccc65" d="M 14,6.2631575 V 2.0526313 H 7 V 6.2631575 L 1.0876877,19.421052 C 0.77098172,20.210524 1.3516093,21 2.1961542,21 H 18.82317 c 0.844549,0 1.372388,-0.842103 1.108466,-1.578947 z"/>
 <path style="opacity:0.1" d="M 14.900004,3.5 H 6.1000011 C 5.4950036,3.5 5.0000021,3.0500002 5.0000021,2.4999998 5.0000021,1.9500001 5.4950036,1.5 6.1000011,1.5 h 8.8000029 c 0.604997,0 1.099998,0.4500001 1.099998,0.9999998 C 16.000002,3.0500002 15.505001,3.5 14.900004,3.5 Z"/>
 <path style="fill:#75aa38" d="M 14.900004,3 H 6.1000011 C 5.4950036,3 5.0000021,2.5500003 5.0000021,1.9999998 5.0000021,1.4500001 5.4950036,1 6.1000011,1 h 8.8000029 c 0.604997,0 1.099998,0.4500001 1.099998,0.9999998 C 16.000002,2.5500003 15.505001,3 14.900004,3 Z"/>
 <path style="opacity:0.1" d="M 10.23862,13.940681 C 7.7636171,13.530155 6.0000021,11.00359 6.0000021,11.00359 c 0,0 2.2863785,-1.854797 4.7613829,-1.44427 2.474999,0.410526 4.238617,2.937095 4.238617,2.937095 0,0 -2.286378,1.854793 -4.761382,1.444266 z"/>
 <path style="fill:#2e7d32" d="M 10.23862,13.440681 C 7.7636171,13.030155 6.0000021,10.50359 6.0000021,10.50359 c 0,0 2.2863785,-1.8547975 4.7613829,-1.44427 2.474999,0.410526 4.238617,2.937095 4.238617,2.937095 0,0 -2.286378,1.854793 -4.761382,1.444266 z"/>
 <path style="opacity:0.1" d="M 11.485821,20.489887 C 8.4030991,20.316436 5.5000021,17.954279 5.5000021,17.954279 c 0,0 1.9878005,-2.136935 5.0141859,-1.941668 3.026382,0.195267 5.985814,2.535604 5.985814,2.535604 0,0 -1.93146,2.115119 -5.014181,1.941672 z"/>
 <path style="fill:#388e3c" d="M 11.485821,19.989887 C 8.4030991,19.816436 5.5000021,17.454279 5.5000021,17.454279 c 0,0 1.9878005,-2.136935 5.0141859,-1.941668 3.026382,0.195267 5.985814,2.535604 5.985814,2.535604 0,0 -1.93146,2.115119 -5.014181,1.941672 z"/>
 <path style="opacity:0.1" d="m 8.0854931,13.662009 c -2.6541255,1.395473 -2.585324,3.822351 -2.585324,3.822351 0,0 4.3380789,0.238181 6.9145139,-1.144435 2.576431,-1.382611 2.585319,-3.82235 2.585319,-3.82235 0,0 -4.260383,-0.251038 -6.9145089,1.144434 z"/>
 <path style="fill:#43a047" d="m 8.0854931,13.162009 c -2.6541255,1.395473 -2.585324,3.822351 -2.585324,3.822351 0,0 4.3380789,0.238181 6.9145139,-1.144435 2.576431,-1.382611 2.585319,-3.82235 2.585319,-3.82235 0,0 -4.260383,-0.251038 -6.9145089,1.144434 z"/>
 <path style="opacity:0.2;fill:#ffffff" d="M 6.0996116,1 C 5.4946141,1 5.0000021,1.4500003 5.0000021,2 c 0,0.086633 0.016005,0.169697 0.039065,0.25 C 5.1623941,1.8204899 5.5899101,1.5 6.0996116,1.5 h 8.8007814 c 0.509701,0 0.937217,0.3204899 1.060547,0.75 C 15.984,2.169697 16,2.0866331 16,2 16,1.4500003 15.505388,1 14.900391,1 Z"/>
</svg>

<svg xmlns="http://www.w3.org/2000/svg" width="22" height="22" version="1"><path style="opacity:.2" d="M14 6.763v-4.21H7v4.21L1.088 19.921c-.317.79.264 1.579 1.108 1.579h16.627c.845 0 1.373-.842 1.109-1.579z"/><path style="fill:#9ccc65" d="M14 6.263v-4.21H7v4.21L1.088 19.421C.77 20.211 1.352 21 2.196 21h16.627c.845 0 1.373-.842 1.109-1.579z"/><path style="opacity:.1" d="M14.9 3.5H6.1c-.605 0-1.1-.45-1.1-1s.495-1 1.1-1h8.8c.605 0 1.1.45 1.1 1s-.495 1-1.1 1z"/><path style="fill:#75aa38" d="M14.9 3H6.1C5.495 3 5 2.55 5 2s.495-1 1.1-1h8.8c.605 0 1.1.45 1.1 1s-.495 1-1.1 1z"/><path style="opacity:.1" d="M10.239 13.94C7.764 13.53 6 11.005 6 11.005s2.286-1.855 4.761-1.445C13.236 9.97 15 12.496 15 12.496s-2.286 1.855-4.761 1.445z"/><path style="fill:#2e7d32" d="M10.239 13.44C7.764 13.03 6 10.505 6 10.505s2.286-1.855 4.761-1.445C13.236 9.47 15 11.996 15 11.996s-2.286 1.855-4.761 1.445z"/><path style="opacity:.1" d="M11.486 20.49C8.403 20.316 5.5 17.954 5.5 17.954s1.988-2.137 5.014-1.941c3.027.195 5.986 2.535 5.986 2.535s-1.931 2.115-5.014 1.942z"/><path style="fill:#388e3c" d="M11.486 19.99C8.403 19.816 5.5 17.454 5.5 17.454s1.988-2.137 5.014-1.941c3.027.195 5.986 2.535 5.986 2.535s-1.931 2.115-5.014 1.942z"/><path style="opacity:.1" d="M8.085 13.662C5.431 15.057 5.5 17.484 5.5 17.484s4.338.239 6.915-1.144C14.99 14.957 15 12.518 15 12.518s-4.26-.251-6.915 1.144z"/><path style="fill:#43a047" d="M8.085 13.162C5.431 14.557 5.5 16.984 5.5 16.984s4.338.239 6.915-1.144C14.99 14.457 15 12.018 15 12.018s-4.26-.251-6.915 1.144z"/><path style="opacity:.2;fill:#fff" d="M6.1 1C5.495 1 5 1.45 5 2c0 .087.016.17.04.25.122-.43.55-.75 1.06-.75h8.8c.51 0 .938.32 1.06.75A.903.903 0 0 0 16 2c0-.55-.495-1-1.1-1z"/></svg>
